X: 559
T: Shandingshang gaimiao haixian di
%%abc-version 2.0
%%abcx-abcm2ps-target-version 5.9.1 (29 Sep 2008)
%%abc-creator hum2abc beta
%%abcx-conversion-date 2013/10/02 07:52:30
%%abc-edited-by Helmut Schaffrath
%%humdrum-veritas 1422462010
%%humdrum-veritas-data 934354816
%%continueall 1
%%barnumbers 0
L: 1/8
M: 2/4
K: A
e d e e/ f/ [I:setbarnb 1]| 
B BE2 | 
e d e e/ f/ | 
E4 | 
f de2 | 
B BE2 | 
e e/ d/ B e | 
A4 |]  



